!!!SOCIAL_FUNCTION:	love songs
!!!PDT:	1943
!!!OTL: No_79_All_My_Sweethearts_Are_Gone_Except_One.krn
!!!REG: British Columbia
**kern
*staff1
=1-
*clefF4
*k[f#]
*M2/4
4r
8.r
16d\
=2
8.d\L
16A\Jk
8A\L
8G\J
=3
8.A\L
16A\Jk
4e\
=4
4.d\
8A\
=5
8A\L
8G\J
8G\
16r
16d\
=6
8.d\L
16A\Jk
8A\L
8G\J
=7
8.A\L
16A\Jk
8d\L
8B\J
=8
4.A\
8G\
=9
16E\LK
8.D\J
8D\
16r
16G\
=10
8.G\L
16E\Jk
8D/L
8BB/J
=11
8.D\L
16D\Jk
4E\
=12
2D\
==
*-
